X: 2
T: Willafjord
R: reel
M: 4/4
L: 1/8
K: Dmaj
B2|A2FA- ADFA|B2GB- BDGB|A2FA- ADFA|EFGA GFED|A2FA- ADFA|B2GB- BDGB|ABcd efge|f2d2 d2:||:e2|f2df- ffdf|geaf gfeg|f2df- fAdf|e2ce- eAce|f2df- ffdf|geaf gfed|ABcd efge|f2d2 d2:|


Tune 292	Setting 13046

